!!!!SEGMENT: pl-wtm--1125-3623--001-004_rozycki-ludomir--deux-preludes-et-deux-nocturnes-op-3-no-4-nocturne.krn
!!!cenid: 19xx:136
!!!COM: Różycki, Ludomir
!!!COM-rismID: pe50045573
!!!CDT: 1883-1953
!!!CNT: Polish
!!!GTL: Deux Préludes et deux Nocturnes op. 3
!!!OTL: No. 4. Nocturne
!!!OMV: 004
!!!PDT: 1924
!!!AGN:
!!!YEC: Copyright 2022 Narodowy Instytut Fryderyka Chopina (https://polishscores.org)
!!!YEM: License CC-BY-4.0 (https://creativecommons.org/licenses/by/4.0)
!!!SMS-siglum: PL-Wtm
!!!SMS-shelfmark: 1125 3623
!!!SMS-variant:
!!!SMS-altvar:
!!!SMS-shelfwork: 001-004 G
!!!NIFC-rismSourceID: 1001192241
!!!NIFC-rismChildID: 1001192241
!!!NIFC-islandoraID: pl-wtm:72722
!!!URL-pdf-islandora: https://repozytorium.nifc.pl/islandora/object/pl-wtm%3A72722/datastream/PDF/view
!!!URL-scan: https://polish.musicsources.pl/pl/lokalizacje/galeria/druki-muzyczne/18456/5 @EN{Scan on Polish Music Sources Website} @PL{Skany w portalu Dziedzictwo Muzyki Polskiej w otwartym dostępie}
!!!IIIF:
!!!ONB-nifc:
!!!OMD: Andante doloroso.
!!!AIN: 1 piano
!!!key: b
**kern	**fing	**kern	**fing	**dynam
*part1	*part1	*part1	*part1	*part1
*staff2	*staff2	*staff1	*staff1	*
*ICklav	*	*ICklav	*	*
*Ipiano	*	*Ipiano	*	*
*I"[PIANO.]	*	*I"[PIANO.]	*	*
*clefF4	*	*clefG2	*	*
*k[f#c#]	*	*k[f#c#]	*	*
*b:	*	*b:	*	*
*M2/2	*	*M2/2	*	*
*met(c|)	*	*met(c|)	*	*
=1	=1	=1	=1	=1
!LO:TX:b:i:t=con Pedale	!	!LO:TX:a:t=M.M. [2]=69.	!	!
4BBB/	.	4r	.	p
(4F#\ 4e 4g	.	(4a#X/	.	.
4r	.	4f#/	.	.
4F#\) 4c# 4e	.	4a#/	.	<
=2	=2	=2	=2	=2
4BBB/	.	2b\	.	[
(4F#\ 4B 4d	.	.	.	.
4r	.	4dd\	.	>
4F#\) 4d 4f#	.	4b\)	.	]
=3	=3	=3	=3	=3
4BBB/	.	4r	.	.
(4F#\ 4e 4g	.	(4a#X/	.	.
4r	.	4f#/	.	.
4F#\) 4c# 4e	.	4a#/	.	.
=4	=4	=4	=4	=4
4r	.	4b\	.	<
4BBB^^/	.	4cc#\	.	.
4F#^^\ 4B 4d 4f#	.	4dd\	.	.
4r	.	4ff#\	.	[
!!LO:LB:g=original
=5	=5	=5	=5	=5
2r	.	[1gg#X	.	.
(2BBB/	.	.	.	.
=6	=6	=6	=6	=6
2F#\) 2B 2d 2f#	.	4gg#\]	.	.
.	.	4ff#\	.	.
!	!	!LO:TUP:a	!	!
2r	.	6dd\	.	.
.	.	6cc#\	.	.
.	.	6b\)	.	.
=7	=7	=7	=7	=7
4r	.	4r	.	.
(4F#\ 4e 4g	.	(4a#X/	.	.
4r	.	4f#/	.	<
4F#\) 4c# 4e	.	4a#/	.	.
=8	=8	=8	=8	=8
*ped	*	*	*	*
(4BBB/	.	2b\	.	.
*Xped	*	*	*	*
4F#\) 4B 4d	.	.	.	.
*ped	*	*	*	*
(4AAA/	.	2cc#\	.	[
*Xped	*	*	*	*
4G\) 4B 4e	.	.	.	.
!!LO:LB:g=original
=9	=9	=9	=9	=9
*	*	*^	*	*
*ped	*	*	*	*	*
4DD/	.	[1ff#)	4r	.	mf
[2D\ 2A [2d	.	.	[2f#\ 2cc#	.	>
*Xped	*	*	*	*	*
4D\] 4G#X 4d]	.	.	4f#\] 4b	.	]
*	*	*v	*v	*	*
=10	=10	=10	=10	=10
*ped	*	*	*	*
(4D\	.	4ff#\]	.	.
4G#X\) 4B 4f#	.	(4ff#\	.	<
2r	.	4bb\	.	.
*Xped	*	*	*	*
.	.	4ccc#\	.	[
=11	=11	=11	=11	=11
*	*	*^	*	*
*ped	*	*	*	*	*
4DD/	.	[1ff#)	4r	.	.
[2D\ 2A [2d	.	.	[2f#\ 2cc#	.	>
*Xped	*	*	*	*	*
4D\] 4G#X 4d]	.	.	4f#\] 4b	.	]
*	*	*v	*v	*	*
=12	=12	=12	=12	=12
*ped	*	*	*	*
(4D\	.	4ff#\]	.	.
4G#X\) 4B 4f#	.	4ff#^\	.	.
2r	.	4bb^\	.	.
*Xped	*	*	*	*
.	.	4ccc#^\	.	.
!!LO:LB:g=original
=13	=13	=13	=13	=13
*ped	*	*	*	*
!	!	!LO:TX:b:i:t=poco agitato	!	!
4CC#/ 4C#	.	2.ff#^\ 2.fff#	.	f
4r	.	.	.	.
4G#X\ 4B 4e#X	.	.	.	.
4ryy	.	4ee#X^\ 4eee#X	.	.
*Xped	*	*	*	*
=14	=14	=14	=14	=14
*ped	*	*	*	*
4DD/ 4D	.	4dd^\ 4ddd	.	.
4r	.	4cc#^\ 4ccc#	.	.
!	!	!LO:TUP:a	!	!
4G#X\ 4B 4f#	.	6b^\ 6bb	.	.
.	.	6a^\ 6aa	.	.
4ryy	.	.	.	.
*Xped	*	*	*	*
.	.	6g#X^\ 6gg#X	.	.
=15	=15	=15	=15	=15
*ped	*	*	*	*
4r	.	2f#^\ 2ff#	.	.
4CC#/ 4C#	.	.	.	.
4r	.	2ee#X^\	.	.
*Xped	*	*	*	*
4G#X\ 4B 4e#X	.	.	.	.
=16	=16	=16	=16	=16
!	!	!LO:TX:b:i:t=rit._:ext=ud	!	!
!	!	!LO:TUP:a	!	!
4r	.	3dd^\	.	.
4DD/ 4D	.	.	.	.
.	.	3cc#^\	.	.
4r	.	.	.	.
.	.	3b^\	.	.
4G#X\ 4B 4f#	.	.	.	.
!!LO:LB:g=original
=17	=17	=17	=17	=17
*	*	*^	*	*
(2.CC#/ 2.C#	.	((2a/	1B 1e#X	.	.
.	.	2g#X/)	.	.	.
4EEn/ 4En	.	.	.	.	.
=18	=18	=18	=18	=18	=18
2CCn/ 2Cn	.	(2en/	1A 1f#	.	.
2BBB/ 2BB	.	2d/)	.	.	.
*	*	*v	*v	*	*
=19	=19	=19	=19	=19
[1AAA) [1AA	.	[1F#) [1c#X [1f#	.	.
=20	=20	=20	=20	=20
1AAA] 1AA]	.	1F#] 1c#] 1f#]	.	.
=21	=21	=21	=21	=21
*^	*	*^	*	*
[<1CC# [1D#X	1FF#	.	(1A 1a	[1B#X [>1d#X	.	.
=22	=22	=22	=22	=22	=22	=22
1CC#] 1D#]	2GG#X/	.	2G#X/ 2g#X	1B#] 1d#]	.	.
.	2AA/	.	2F#/ 2f#	.	.	.
*	*	*	*v	*v	*	*
=23	=23	=23	=23	=23	=23
[<1CC# [1D#X	1AA	.	[1B#X [1d#X [1f# [1b#X	.	.
=24	=24	=24	=24	=24	=24
1CC#] 1D#]	2GG#X/	.	1B#]) 1d#] 1f#] 1b#]	.	.
.	2FF#/	.	.	.	.
*v	*v	*	*	*	*
!!LO:PB:g=original
=25	=25	=25	=25	=25
*	*below	*	*	*
!LO:SIC:v:o=[1CC#: 1EE#X: [1C#::	!	!LO:TX:a:i:t=m.g.	!	!
[1EE#X	1 4 5	[1E#X: [1c#X: [1e#X: [<1g#X: [>1b#X:	1 2 4 5	.
=26	=26	=26	=26	=26
*	*	*^	*	*
!LO:SIC:v:o=2CC#/] 2EE 2C#]	!	!	!	!	!
2EE#]	.	2b#/]	2E#\] 2c#] 2e#] 2g#]	.	.
!	!	!LO:TX:a:i:t=m.d.	!	!	!
2r	.	[2cc#/	2r	.	.
*	*	*v	*v	*	*
=27	=27	=27	=27	=27
1r	.	1cc#]	.	.
=28	=28	=28	=28	=28
*ped	*	*	*	*
!	!	!LO:TX:a:i:t=più lento	!	!
1BBB 1DD 1FF# 1BB	.	1d 1f# 1b 1dd	.	ff
=29	=29	=29	=29	=29
*ped	*	*	*	*
!	!	!	!	!LO:HP:t=cresc._:ext=ud
1AAA 1CC# 1EE 1AA	.	1e 1a 1cc# 1ee	.	<
=30	=30	=30	=30	=30
*ped	*	*	*	*
1FFF# 1AAA 1DD 1FF#	.	1f# 1a 1dd 1ff#	.	.
=31	=31	=31	=31	=31
*8ba	*	*	*	*
*ped	*	*	*	*
[1CCC# [1EEE#X [1GGG#X [1CC#	.	[1g#X [1cc# [1ee#X [1gg#X	.	[[
!!LO:LB:g=original
=32	=32	=32	=32	=32
2CCC#/] 2EEE#] 2GGG#] 2CC#]	.	2g#\] 2cc#] 2ee#] 2gg#]	.	.
*X8ba	*	*	*	*
2r	.	2r	.	.
=33	=33	=33	=33	=33
*ped	*	*	*	*
!LO:TUP:a	!	!LO:TX:a:B:t=Tempo I.	!	!
(6BBB/	.	4r	.	p
6g\	.	.	.	.
.	.	(4a#X/	.	.
6e\)	.	.	.	.
!LO:TUP:a	!	!	!	!
(6F#\	.	4f#/	.	.
6e\	.	.	.	.
.	.	4a#/	.	<
6c#\)	.	.	.	.
*Xped	*	*	*	*
=34	=34	=34	=34	=34
*Xtuplet	*	*	*	*
*ped	*	*	*	*
(>6r	.	2b\	.	[
6d\	.	.	.	.
6B\)	.	.	.	.
(6F#\	.	4dd\	.	.
6f#\	.	.	.	.
.	.	4b\)	.	.
6d\)	.	.	.	.
*Xped	*	*	*	*
=35	=35	=35	=35	=35
*ped	*	*	*	*
(6BBB/	.	4r	.	.
6g\	.	.	.	.
.	.	(4a#X/	.	.
6e\)	.	.	.	.
(6F#\	.	4f#/	.	.
6e\	.	.	.	.
.	.	4a#/	.	<
6c#\)	.	.	.	.
*Xped	*	*	*	*
!!LO:LB:g=original
=36	=36	=36	=36	=36
(>6r	.	(4b\)	.	.
6f#\	.	.	.	.
.	.	4cc#\	.	.
6d\)	.	.	.	.
(6F#\	.	4dd\	.	.
6d\	.	.	.	.
.	.	4ff#\	.	[[
6B\)	.	.	.	.
=37	=37	=37	=37	=37
*ped	*	*	*	*
(6BB/	.	[1gg#X	.	.
6a^\	.	.	.	.
6f#\)	.	.	.	.
(6F#\	.	.	.	.
6f#^\	.	.	.	.
6d\)	.	.	.	.
=38	=38	=38	=38	=38
4D\	.	4gg#\]	.	.
4r	.	4ff#\	.	>
!	!	!LO:TUP:a	!	!
2r	.	6dd\	.	.
.	.	6cc#\	.	.
.	.	[6b\)	.	]]
=39	=39	=39	=39	=39
(6BBB/	.	4b\]	.	.
6g\	.	.	.	.
.	.	(4a#X/	.	>
6e\)	.	.	.	.
(6F#\	.	4f#/	.	]
6e\	.	.	.	.
.	.	4a#/	.	<
6c#\)	.	.	.	[[
!!LO:LB:g=original
=40	=40	=40	=40	=40
(6BBB/	.	1b)	.	.
6d\	.	.	.	.
6An\	.	.	.	.
6F#\	.	.	.	.
6B\	.	.	.	.
6D\)	.	.	.	.
=41	=41	=41	=41	=41
(6BBB/	.	4r	.	.
6g\	.	.	.	.
.	.	4a#X/	.	.
6e\)	.	.	.	.
(6F#\	.	(4f#/	.	.
6e\	.	.	.	.
.	.	4a#/	.	.
6c#\)	.	.	.	.
=42	=42	=42	=42	=42
(6BBB/	.	1b)	.	.
6d\	.	.	.	.
6An\)	.	.	.	.
(6F#\	.	.	.	.
6B\	.	.	.	.
6D\)	.	.	.	.
=43	=43	=43	=43	=43
!	!	!LO:TX:b:i:t=rit.	!	!
4BBB/	.	2r	.	.
!	!	!	!	!LO:HP:t=poco_ a poco diminuendo_:ext=s:ext=ud
4r	.	.	.	>
(4f#\	.	(2a#X/	.	.
4d\)	.	.	.	.
!!LO:LB:g=original
=44	=44	=44	=44	=44
*tuplet	*	*	*	*
!LO:TUP:a	!	!	!	!
(>6r	.	2a/	.	.
6e#X\	.	.	.	.
6c#\)	.	.	.	.
(4en\	.	2a#X/	.	.
4cn\)	.	.	.	.
=45	=45	=45	=45	=45
6r	.	[1b)	.	.
(6d\	.	.	.	.
6B\	.	.	.	.
6F#\	.	.	.	.
6d\	.	.	.	.
6B\)	.	.	.	.
=46	=46	=46	=46	=46
*Xtuplet	*	*	*	*
6r	.	1b_	.	.
(6d\	.	.	.	.
6B\	.	.	.	.
6F#\	.	.	.	.
[6d\	.	.	.	.
[6B\ 6d_	.	.	.	.
=47	=47	=47	=47	=47
1F#\) 1B] 1d]	.	1b]	.	]
==	==	==	==	==
*-	*-	*-	*-	*-
!!!system-decoration: {(s1,s2)}
!!!RDF**kern: < = below
!!!RDF**kern: > = above
!!!ENC: Andrzej Gręziak
!!!END: 2023-10-12
!!!EED: Marta Chmielewska
!!!EEV: 2023-10-24
